pro/src/icons/stroke-info.svg

<svg width="48" height="48" viewBox="0 0 48 48" xmlns="http://www.w3.org/2000/svg">
<path id="icon" fill-rule="evenodd" clip-rule="evenodd" d="M24 43.0909C13.4545 43.0909 4.90909 34.5455 4.90909 24C4.90909 20.7523 5.71845 17.6905 7.15309 15.021C7.40265 14.5566 7.22851 13.9778 6.76414 13.7283C6.29977 13.4787 5.72101 13.6529 5.47146 14.1172C3.88973 17.0604 3 20.4322 3 24C3 35.5999 12.4001 45 24 45C35.5999 45 45 35.5999 45 24C45 12.4001 35.5999 3 24 3C20.3809 3 16.9697 3.92015 13.9891 5.54046C13.5259 5.79225 13.3546 6.37183 13.6064 6.83499C13.8582 7.29816 14.4377 7.46952 14.9009 7.21773C17.6094 5.7453 20.7082 4.90909 24 4.90909C34.5455 4.90909 43.0909 13.4545 43.0909 24C43.0909 34.5455 34.5455 43.0909 24 43.0909ZM24 16.5C24.6904 16.5 25.25 15.9404 25.25 15.25C25.25 14.5596 24.6904 14 24 14C23.3097 14 22.75 14.5596 22.75 15.25C22.75 15.9404 23.3097 16.5 24 16.5ZM24 34C23.4477 34 23 33.5741 23 33.0488L23 21.9977L21.9539 21.9976C21.4286 21.9976 21.0027 21.5499 21.0027 20.9976C21.0027 20.4454 21.4286 19.9977 21.9539 19.9977L24.0526 19.9977C24.3674 19.9977 24.6466 20.1585 24.8197 20.4062C24.9195 20.5418 24.9831 20.7032 24.9971 20.8779C25.0016 20.9172 25.0039 20.9571 25.0039 20.9977C25.0039 21.0281 25.0026 21.0582 25 21.088L25 33.0488C25 33.5741 24.5523 34 24 34Z" fill="currentColor"/>
</svg>

<svg xmlns="http://www.w3.org/2000/svg" width="48" height="48"><path id="icon" fill="currentColor" fill-rule="evenodd" d="M24 43.09C13.455 43.09 4.91 34.546 4.91 24c0-3.248.808-6.31 2.243-8.979a.955.955 0 0 0-1.682-.904A20.8 20.8 0 0 0 3 24c0 11.6 9.4 21 21 21s21-9.4 21-21S35.6 3 24 3c-3.62 0-7.03.92-10.01 2.54a.954.954 0 1 0 .91 1.678A19 19 0 0 1 24 4.909c10.545 0 19.09 8.546 19.09 19.091S34.546 43.09 24 43.09m0-26.59a1.25 1.25 0 1 0 0-2.5 1.25 1.25 0 0 0 0 2.5M24 34c-.552 0-1-.426-1-.951V21.998h-1.046c-.525 0-.951-.448-.951-1 0-.553.426-1 .95-1h2.1c.314 0 .594.16.767.408.1.136.163.297.177.472a1 1 0 0 1 .003.21v11.96c0 .526-.448.952-1 .952" clip-rule="evenodd"/></svg>
